assets/icons/svg/envelope.svg

<svg width="16" height="16" viewBox="0 0 16 16" xmlns="http://www.w3.org/2000/svg">
<path d="M13.9886 4.13714V4.12857C13.9793 4.10442 13.9658 4.08215 13.9486 4.06286V4.06286C13.9306 4.04391 13.9093 4.02842 13.8857 4.01714V4.01714C13.8626 4.00717 13.8379 4.00137 13.8128 4H2.2C2.17489 4.00137 2.15023 4.00717 2.12714 4.01714V4.01714C2.10358 4.02842 2.08228 4.04391 2.06429 4.06286V4.06286C2.04254 4.08379 2.0255 4.10912 2.01429 4.13714V4.14571C2.00634 4.16581 2.00152 4.18701 2 4.20857V11.6371C2 11.694 2.02258 11.7485 2.06276 11.7887C2.10295 11.8288 2.15745 11.8514 2.21429 11.8514H13.7857C13.8425 11.8514 13.897 11.8288 13.9372 11.7887C13.9774 11.7485 14 11.694 14 11.6371V4.20857C14.0003 4.18428 13.9964 4.16012 13.9886 4.13714V4.13714ZM13.5714 11.08L10.0371 7.92428L13.5714 4.69428V11.08ZM2.42857 4.69428L5.85714 7.82857L2.42857 11.0043V4.69428ZM9.57142 7.76285C9.5634 7.76802 9.55577 7.77375 9.54856 7.77999V7.78857L7.99999 9.20428L2.76714 4.42286H13.2328L9.57142 7.76285ZM6.17571 8.11857L7.85713 9.65285C7.89642 9.68799 7.94728 9.70742 7.99999 9.70742C8.0527 9.70742 8.10356 9.68799 8.14285 9.65285L9.71427 8.21428L13.3128 11.4228H2.60714L6.17571 8.11857Z"/>
</svg>

<svg xmlns="http://www.w3.org/2000/svg" width="16" height="16" viewBox="0 0 16 16">
  <path d="M13.989 4.137V4.13a.214.214 0 0 0-.04-.066.214.214 0 0 0-.063-.046.213.213 0 0 0-.073-.017H2.2a.213.213 0 0 0-.073.017.214.214 0 0 0-.063.046.213.213 0 0 0-.05.074v.009A.211.211 0 0 0 2 4.209v7.428a.214.214 0 0 0 .214.214h11.572a.215.215 0 0 0 .214-.214V4.21a.214.214 0 0 0-.011-.072Zm-.418 6.943-3.534-3.156 3.534-3.23v6.386ZM2.43 4.694 5.857 7.83 2.43 11.004v-6.31Zm7.14 3.069a.203.203 0 0 0-.022.017v.009L8 9.204 2.767 4.423h10.466L9.57 7.763Zm-3.395.356 1.681 1.534a.214.214 0 0 0 .286 0l1.571-1.439 3.599 3.209H2.607l3.569-3.304Z"/>
</svg>
